icons/desktop/16/svg/sync-16.svg

<svg width="16" height="16" viewBox="0 0 16 16" fill="none" xmlns="http://www.w3.org/2000/svg">
<path d="M12.8311 5.97435C13.16 5.97435 13.4331 6.18719 13.5361 6.48118C13.6711 6.96604 13.75 7.4729 13.75 7.99974C13.75 11.1707 11.171 13.7497 8 13.7497C7.65861 13.7497 7.32478 13.7175 7 13.6599V15.4978C7 15.9438 6.46051 16.1673 6.14551 15.8523L3.64746 13.3533C3.45246 13.1583 3.45246 12.8412 3.64746 12.6462L6.14551 10.1472C6.46044 9.83226 6.99978 10.0559 7 10.5007V12.1257C7.32017 12.2055 7.65448 12.2497 8 12.2497C10.344 12.2497 12.25 10.3437 12.25 7.99974C12.25 7.62999 12.2179 7.31318 12.125 6.97239C12.098 6.89543 12.0762 6.81518 12.0762 6.72923C12.0762 6.31223 12.4141 5.97435 12.8311 5.97435Z" fill="black"/>
<path d="M9 0.500715C9.00022 0.0559617 9.53856 -0.167534 9.85352 0.147199L12.3525 2.64622C12.5475 2.84122 12.5475 3.15825 12.3525 3.35325L9.85352 5.85228C9.53846 6.16671 9 5.9436 9 5.49779V3.87376C8.68 3.79427 8.34591 3.74974 8.00098 3.74974C5.65708 3.74975 3.75112 5.65587 3.75098 7.99974C3.75098 8.3747 3.80636 8.73583 3.90234 9.08079L3.89941 9.072C3.89341 9.051 3.92383 9.17734 3.92383 9.26634C3.92365 9.68319 3.58583 10.0212 3.16895 10.0212C2.84497 10.0212 2.57379 9.81504 2.4668 9.52806C2.3308 9.04006 2.25 8.52974 2.25 7.99974C2.25015 4.82886 4.82909 2.24974 8 2.24974L8.00098 2.24876C8.34187 2.24876 8.67547 2.28101 9 2.33861V0.500715Z" fill="black"/>
</svg>

<!-- This Source Code Form is subject to the terms of the Mozilla Public
   - License, v. 2.0. If a copy of the MPL was not distributed with this
   - file, You can obtain one at http://mozilla.org/MPL/2.0/. -->
<svg xmlns="http://www.w3.org/2000/svg" width="16" height="16" fill="context-fill" fill-opacity="context-fill-opacity" viewBox="0 0 16 16">
    <path d="M12.831 5.974c.329 0 .602.213.705.507.135.485.214.992.214 1.519A5.756 5.756 0 0 1 8 13.75a5.7 5.7 0 0 1-1-.09v1.838a.5.5 0 0 1-.854.354l-2.499-2.499a.5.5 0 0 1 0-.707l2.499-2.499a.5.5 0 0 1 .854.354v1.625q.48.122 1 .124A4.254 4.254 0 0 0 12.25 8c0-.37-.032-.687-.125-1.028a.7.7 0 0 1-.049-.243c0-.417.338-.755.755-.755M9 .5a.5.5 0 0 1 .854-.353l2.499 2.5a.5.5 0 0 1 0 .706l-2.5 2.5A.5.5 0 0 1 9 5.497V3.874a4.1 4.1 0 0 0-.999-.124A4.254 4.254 0 0 0 3.751 8c0 .375.055.736.151 1.08L3.9 9.073c-.006-.021.025.105.025.194a.755.755 0 0 1-.755.755.75.75 0 0 1-.702-.493A5.7 5.7 0 0 1 2.25 8c0-3.171 2.58-5.75 5.75-5.75l.001-.001q.51.002.999.09z" />
</svg>
